X:1
T:Lass of Richmond Hill, The
R:reel
S:Kerr \`i Merry Melodies, vol. 3, No. 381  (c. 1880s)
M:2/4
L:1/8
P:A(AB)2(AC)2A
K:G % Transposed from D
P:A
D|DG GG|A/G/F/G/ Ac|BG EA|G2 FD|DG GG|A/G/F/G/ AG|FD E^C|D3|]
P:B
G|FD DG|FD DG|F/G/A/B/ cB|B2 AG|FD DG|FD d>c|B/A/G AF|G3D|
DG GB|B3G|FA Ac|c3c|BA/G/ AF|GE DC|B,/C/D EF|G3|]
P:C
G|FD DG|FD DG|F/G/A/B/ cB|B2 AG|FD DG|FD d>c|B/A/G AF|G3D|
DG GB|B3G|FA Ac|c3c|B2AG|A2F2|G2E2|D2C2|B,/C/D EF|G3|]
</abc>
